dist/img/discounts/ant-design_whats-app-outlined.svg

<svg width="26" height="26" viewBox="0 0 26 26" fill="none" xmlns="http://www.w3.org/2000/svg">
<path d="M18.1162 15.2318C17.8395 15.0896 16.4608 14.4143 16.2043 14.3229C15.9479 14.2264 15.76 14.1807 15.5746 14.465C15.3867 14.7469 14.8535 15.374 14.686 15.5645C14.5235 15.7523 14.3584 15.7752 14.0817 15.6355C12.4363 14.8129 11.3572 14.168 10.2731 12.3068C9.98616 11.8117 10.56 11.8473 11.0957 10.7783C11.1871 10.5904 11.1414 10.4305 11.0703 10.2883C10.9992 10.1461 10.4406 8.76992 10.2071 8.20879C9.98108 7.66289 9.74748 7.73906 9.57737 7.72891C9.41487 7.71875 9.22952 7.71875 9.04163 7.71875C8.85373 7.71875 8.55159 7.78984 8.29514 8.0666C8.0387 8.34844 7.31506 9.02637 7.31506 10.4025C7.31506 11.7787 8.31799 13.1117 8.4551 13.2996C8.59729 13.4875 10.428 16.3109 13.2387 17.5271C15.016 18.2939 15.7117 18.36 16.6004 18.2279C17.1412 18.1467 18.2559 17.5525 18.4869 16.8949C18.718 16.2398 18.718 15.6787 18.6494 15.5619C18.5809 15.4375 18.393 15.3664 18.1162 15.2318Z" fill="white"/>
<path d="M23.4914 8.59219C22.9176 7.22871 22.0949 6.00488 21.0463 4.95371C19.9977 3.90508 18.7738 3.07988 17.4078 2.50859C16.0113 1.92207 14.5285 1.625 13 1.625H12.9492C11.4106 1.63262 9.92014 1.9373 8.51858 2.53652C7.16526 3.11543 5.95158 3.93809 4.91311 4.98672C3.87463 6.03535 3.05959 7.2541 2.49592 8.6125C1.91194 10.0191 1.6174 11.5146 1.62502 13.0533C1.63264 14.8154 2.05412 16.5648 2.84377 18.1289V21.9883C2.84377 22.6332 3.36682 23.1562 4.01174 23.1562H7.87365C9.43772 23.9459 11.1871 24.3674 12.9492 24.375H13.0026C14.5235 24.375 15.9987 24.0805 17.3875 23.5041C18.7459 22.9379 19.9672 22.1254 21.0133 21.0869C22.0619 20.0484 22.8871 18.8348 23.4635 17.4814C24.0627 16.0799 24.3674 14.5895 24.375 13.0508C24.3826 11.5045 24.083 10.0039 23.4914 8.59219ZM19.6549 19.7133C17.875 21.4754 15.5137 22.4453 13 22.4453H12.9569C11.4258 22.4377 9.9049 22.0568 8.56174 21.3408L8.34846 21.2266H4.77346V17.6516L4.6592 17.4383C3.94319 16.0951 3.56233 14.5742 3.55471 13.0432C3.54455 10.5117 4.51194 8.13516 6.28674 6.34512C8.05901 4.55508 10.428 3.56484 12.9594 3.55469H13.0026C14.2721 3.55469 15.5035 3.80098 16.6639 4.28848C17.7963 4.76328 18.8119 5.44629 19.6854 6.31973C20.5563 7.19062 21.2418 8.20879 21.7166 9.34121C22.2092 10.5143 22.4555 11.7584 22.4504 13.0432C22.4352 15.5721 21.4424 17.941 19.6549 19.7133Z" fill="white"/>
</svg>

<svg width="26" height="26" fill="none" xmlns="http://www.w3.org/2000/svg"><path d="M18.116 15.232c-.276-.142-1.655-.818-1.912-.91-.256-.096-.444-.141-.63.143-.187.282-.72.909-.888 1.1-.162.187-.328.21-.604.07-1.646-.822-2.725-1.467-3.809-3.328-.287-.495.287-.46.823-1.529.091-.188.045-.348-.026-.49-.07-.142-.63-1.518-.863-2.08-.226-.545-.46-.469-.63-.48-.162-.01-.347-.01-.535-.01-.188 0-.49.072-.747.349-.256.281-.98.96-.98 2.335 0 1.377 1.003 2.71 1.14 2.898.142.188 1.973 3.01 4.784 4.227 1.777.767 2.473.833 3.361.7.541-.08 1.656-.675 1.887-1.332.231-.655.231-1.216.162-1.333-.068-.124-.256-.196-.533-.33Z" fill="#fff"/><path d="M23.491 8.592a11.379 11.379 0 0 0-2.445-3.638 11.282 11.282 0 0 0-3.638-2.445A11.321 11.321 0 0 0 13 1.625h-.05a11.349 11.349 0 0 0-8.037 3.362 11.272 11.272 0 0 0-2.417 3.626 11.379 11.379 0 0 0-.871 4.44 11.41 11.41 0 0 0 1.219 5.076v3.86c0 .644.523 1.167 1.168 1.167h3.862a11.41 11.41 0 0 0 5.075 1.219h.054c1.52 0 2.996-.294 4.384-.87a11.285 11.285 0 0 0 3.626-2.418 11.348 11.348 0 0 0 3.362-8.036 11.332 11.332 0 0 0-.884-4.459Zm-3.836 11.121A9.395 9.395 0 0 1 13 22.445h-.043a9.479 9.479 0 0 1-4.395-1.104l-.214-.114H4.773v-3.575l-.114-.214a9.48 9.48 0 0 1-1.104-4.395 9.387 9.387 0 0 1 2.732-6.698 9.374 9.374 0 0 1 6.672-2.79h.044a9.4 9.4 0 0 1 3.66.733 9.386 9.386 0 0 1 3.022 2.032 9.406 9.406 0 0 1 2.765 6.723 9.41 9.41 0 0 1-2.795 6.67Z" fill="#fff"/></svg>
